web/ui/src/assets/svgs/logo/primary.svg

<svg height="36" viewBox="0 0 140 36" width="140" xmlns="http://www.w3.org/2000/svg" xmlns:xlink="http://www.w3.org/1999/xlink"><mask id="a" fill="#fff"><path d="m.42093333.26677778h9.05628889v9.05706666h-9.05628889z" fill="#fff" fill-rule="evenodd"/></mask><g fill="none" fill-rule="evenodd"><g fill="#fff"><path d="m6.10711111 3.94574444c0-1.75544444 1.44977778-3.16788888 3.16788889-3.16788888 1.7554444 0 3.1297778 1.41244444 3.1297778 3.16788888 0 1.71733334-1.3743334 3.12977778-3.1297778 3.12977778-1.71811111 0-3.16788889-1.41244444-3.16788889-3.12977778m6.29766669 7.78633336v14.3134444c0 5.1908889-4.12222224 9.4274445-9.31311113 9.4655556-1.71733334-.0381111-3.09166667-1.4116667-3.09166667-3.1297778 0-1.7554444 1.41244444-3.1678889 3.16788889-3.1678889h-.15244445c1.71733334 0 3.09166667-1.3743333 3.09166667-3.1678889v-14.3134444c0-1.75622224 1.44977778-3.16788891 3.16788889-3.16788891 1.7554444 0 3.1297778 1.41166667 3.1297778 3.16788891"/><path d="m22.4814333 11.7702667v12.7866666c0 1.7173334-1.3743333 3.1297778-3.1297777 3.1297778-1.7554445 0-3.1297778-1.4124444-3.1297778-3.1297778v-12.7866666c0-1.7173334 1.3743333-3.12977781 3.1297778-3.12977781 1.7554444 0 3.1297777 1.41244441 3.1297777 3.12977781m-6.2595555-7.82444448c0-1.75544444 1.3743333-3.16788889 3.1297778-3.16788889 1.7554444 0 3.1297777 1.41244445 3.1297777 3.16788889 0 1.71733334-1.3743333 3.12977778-3.1297777 3.12977778-1.7554445 0-3.1297778-1.41244444-3.1297778-3.12977778"/><path d="m35.8787333 21.3063667c-1.6107777 0-2.9617777-1.19-3.1741111-2.7128889-.0163333-.1353334-.0318889-.2706667-.0318889-.4168889s.0155556-.2823333.0318889-.4176667c.2123334-1.5228889 1.5633334-2.7128889 3.1741111-2.7128889 1.7173334 0 3.1297778 1.4124445 3.1297778 3.1305556h.0381111-.0381111c0 1.7173333-1.4124444 3.1297778-3.1297778 3.1297778zm9.541-3.1297778h.0007778-.0015555c-.0031112-.0007778-.0365556-.0015556-.0365556-.0381111v-6.3357778-.0007778c0-1.7554444-1.4505556-3.16711109-3.1678889-3.16711109-.7101111 0-1.3276667.20844445-1.8363333.58566667-.1524445.10888889-.2955556.22866666-.4262222.36244444-1.5283334-.91077778-4.0732223-.94811111-4.0732223-.94811111-1.7274444 0-3.3436666.45422222-4.7397777 1.24755556-.0746667.02722222-.1493334.05444444-.2224445.08788889l-.6486667.42000004c-2.1575555 1.5407777-3.6353333 4.0047777-3.9168888 6.7837777-.0023334.028-.0046667.0567778-.0077778.0847778-.0116667.1306667-.0233334.2613333-.0295556.3935556-.0062222.1026666-.0077778.2061111-.0101111.3095555-.0007778.0591111-.0046667.1174445-.0046667.1765556v.0381111.0373333c0 .0598889.0038889.1182222.0046667.1765556.0023333.1034444.0038889.2076666.0101111.3103333.0062222.1314445.0178889.2621111.0295556.3935556.0031111.028.0054444.056.0077778.0847777.2815555 2.7782223 1.7593333 5.2422223 3.9168888 6.7837778l.6486667.4192222c.0731111.0334445.1477778.0606667.2224445.0886667 1.3961111.7925556 3.0123333 1.2475556 4.7397777 1.2475556 0 0 2.5448889-.0381111 4.0732223-.9481111.1306666.133.2737777.2535555.4262222.3616666.5086666.378 1.1262222.5864445 1.8363333.5864445 1.7173333 0 3.1678889-1.4116667 3.1678889-3.1678889v-6.3365556c0-.0357778.0334444-.0373333.0365556-.0373333h.0015555z"/><path d="m68.3228778 18.1443889v6.3738889c0 1.7562222-1.4124445 3.1686666-3.1678889 3.1686666-1.7562222 0-3.1678889-1.4124444-3.1678889-3.1686666v-6.3738889c0-1.7554445-1.4505556-3.1678889-3.2067778-3.1678889-1.7554444 0-3.1678889 1.4124444-3.1678889 3.1678889v6.3738889c0 1.7562222-1.4116666 3.1686666-3.1678889 3.1686666-1.7554444 0-3.206-1.4124444-3.206-3.1686666v-6.3738889c0-5.2671111 4.2746667-9.54177779 9.5417778-9.54177779s9.5425556 4.27466669 9.5425556 9.54177779"/></g><path d="m104.010667 18.1827333v6.3738889c0 1.7173334-1.450556 3.1297778-3.206 3.1297778-1.7554448 0-3.1678892-1.4124444-3.1678892-3.1297778v-6.3738889c0-1.7554444-1.4505556-3.206-3.206-3.206-1.7562222 0-3.206 1.4505556-3.206 3.206v6.3738889c0 1.7173334-1.4124445 3.1297778-3.1686667 3.1297778-1.7554444 0-3.206-1.4124444-3.206-3.1297778v-6.3738889c0-1.7554444-1.3735555-3.206-3.1297778-3.206-1.7554444 0-3.206 1.4505556-3.206 3.206v6.3738889c0 1.7173334-1.4124444 3.1297778-3.1678889 3.1297778-1.7554444 0-3.2067777-1.4124444-3.2067777-3.1297778v-6.3738889c0-5.3052222 4.3135555-9.57988886 9.5806666-9.57988886 2.443 0 4.6565556.91544445 6.3357778 2.44222226 1.6792222-1.52677781 3.9316667-2.44222226 6.3746667-2.44222226 5.2671111 0 9.5798892 4.31277776 9.5798892 9.57988886" fill="#096dd9"/><path d="m107.829244 18.1443889v-6.3738889c0-1.7562222 1.411667-3.16788889 3.167889-3.16788889 1.755445 0 3.167889 1.41166669 3.167889 3.16788889v6.3738889c0 1.7554444 1.450556 3.1678889 3.206 3.1678889 1.755445 0 3.167889-1.4124445 3.167889-3.1678889v-6.3738889c0-1.7562222 1.412445-3.16788889 3.168667-3.16788889 1.755444 0 3.206 1.41166669 3.206 3.16788889v6.3738889c0 5.2671111-4.274667 9.5425555-9.542556 9.5425555-5.267111 0-9.541778-4.2754444-9.541778-9.5425555" fill="#096dd9"/><path d="m4.94915556.26662222c-2.50055556 0-4.52822223 2.02766667-4.52822223 4.52822222 0 2.50133334 2.02766667 4.529 4.52822223 4.529 2.50055555 0 4.52822222-2.02766666 4.52822222-4.529 0-2.50055555-2.02766667-4.52822222-4.52822222-4.52822222zm0 8.41011111c-2.14355556 0-3.88111112-1.73755555-3.88111112-3.88188889 0-2.14355555 1.73755556-3.88111111 3.88111112-3.88111111 2.14355555 0 3.88188888 1.73755556 3.88188888 3.88111111 0 2.14433334-1.73833333 3.88188889-3.88188888 3.88188889zm1.93044444-1.80988889-1.12155556-1.50111111.01166667-.00155555c.65022222-.21 1.12-.81977778 1.12-1.53922222 0-.89366667-.72411111-1.617-1.617-1.617h-1.29422222c-.17811111 0-.32355556.14466666-.32355556.32277777v4.52822223c0 .17888888.14544445.32355555.32355556.32355555.17888889 0 .32355555-.14466667.32355555-.32355555v-1.617h.69611112l1.36422222 1.81377777c.10733333.14233334.30955555.17188889.45266666.06455556.14311112-.10733333.17188889-.31033333.06455556-.45344445zm-2.57755556-2.072v-1.94055555h.97066667c.53588889 0 .97066667.43477778.97066667.97066667 0 .53588888-.43477778.96988888-.97066667.96988888z" fill="#096dd9" mask="url(#a)" transform="translate(129.888889 .511078)"/></g></svg>

<?xml version="1.0" encoding="UTF-8"?>
<svg width="140px" height="36px" viewBox="0 0 140 36" version="1.1" xmlns="http://www.w3.org/2000/svg" xmlns:xlink="http://www.w3.org/1999/xlink">
    <title>编组备份</title>
    <defs>
        <rect id="path-1" x="0" y="0" width="272" height="89"></rect>
        <filter x="-2.6%" y="-5.6%" width="105.1%" height="115.7%" filterUnits="objectBoundingBox" id="filter-2">
            <feOffset dx="0" dy="2" in="SourceAlpha" result="shadowOffsetOuter1"></feOffset>
            <feGaussianBlur stdDeviation="2" in="shadowOffsetOuter1" result="shadowBlurOuter1"></feGaussianBlur>
            <feColorMatrix values="0 0 0 0 0.00125587547   0 0 0 0 0.08653479   0 0 0 0 0.178130661  0 0 0 1 0" type="matrix" in="shadowBlurOuter1"></feColorMatrix>
        </filter>
        <polygon id="path-3" points="0.420933333 0.266777778 9.47722222 0.266777778 9.47722222 9.32384444 0.420933333 9.32384444"></polygon>
    </defs>
    <g id="页面-1" stroke="none" stroke-width="1" fill="none" fill-rule="evenodd">
        <g id="系统组件规范3" transform="translate(-1459.000000, -5001.000000)">
            <g id="编组-34备份" transform="translate(1393.000000, 4974.000000)">
                <g id="编组备份" transform="translate(66.000000, 27.000000)">
                    <path d="M6.10711111,3.94574444 C6.10711111,2.1903 7.55688889,0.777855556 9.275,0.777855556 C11.0304444,0.777855556 12.4047778,2.1903 12.4047778,3.94574444 C12.4047778,5.66307778 11.0304444,7.07552222 9.275,7.07552222 C7.55688889,7.07552222 6.10711111,5.66307778 6.10711111,3.94574444 M12.4047778,11.7320778 L12.4047778,26.0455222 C12.4047778,31.2364111 8.28255556,35.4729667 3.09166667,35.5110778 C1.37433333,35.4729667 0,34.0994111 0,32.3813 C0,30.6258556 1.41244444,29.2134111 3.16788889,29.2134111 L3.01544444,29.2134111 C4.73277778,29.2134111 6.10711111,27.8390778 6.10711111,26.0455222 L6.10711111,11.7320778 C6.10711111,9.97585556 7.55688889,8.56418889 9.275,8.56418889 C11.0304444,8.56418889 12.4047778,9.97585556 12.4047778,11.7320778" id="Fill-1" fill="#FFFFFF"></path>
                    <path d="M22.4814333,11.7702667 L22.4814333,24.5569333 C22.4814333,26.2742667 21.1071,27.6867111 19.3516556,27.6867111 C17.5962111,27.6867111 16.2218778,26.2742667 16.2218778,24.5569333 L16.2218778,11.7702667 C16.2218778,10.0529333 17.5962111,8.64048889 19.3516556,8.64048889 C21.1071,8.64048889 22.4814333,10.0529333 22.4814333,11.7702667 M16.2218778,3.94582222 C16.2218778,2.19037778 17.5962111,0.777933333 19.3516556,0.777933333 C21.1071,0.777933333 22.4814333,2.19037778 22.4814333,3.94582222 C22.4814333,5.66315556 21.1071,7.0756 19.3516556,7.0756 C17.5962111,7.0756 16.2218778,5.66315556 16.2218778,3.94582222" id="Fill-3" fill="#FFFFFF"></path>
                    <path d="M35.8787333,21.3063667 C34.2679556,21.3063667 32.9169556,20.1163667 32.7046222,18.5934778 C32.6882889,18.4581444 32.6727333,18.3228111 32.6727333,18.1765889 C32.6727333,18.0303667 32.6882889,17.8942556 32.7046222,17.7589222 C32.9169556,16.2360333 34.2679556,15.0460333 35.8787333,15.0460333 C37.5960667,15.0460333 39.0085111,16.4584778 39.0085111,18.1765889 L39.0466222,18.1765889 L39.0466222,18.1765889 L39.0085111,18.1765889 C39.0085111,19.8939222 37.5960667,21.3063667 35.8787333,21.3063667 L35.8787333,21.3063667 Z M45.4197333,18.1765889 L45.4205111,18.1765889 L45.4189556,18.1765889 C45.4158444,18.1758111 45.3824,18.1750333 45.3824,18.1384778 L45.3824,11.8027 L45.3824,11.8019222 C45.3824,10.0464778 43.9318444,8.63481111 42.2145111,8.63481111 C41.5044,8.63481111 40.8868444,8.84325556 40.3781778,9.22047778 C40.2257333,9.32936667 40.0826222,9.44914444 39.9519556,9.58292222 C38.4236222,8.67214444 35.8787333,8.63481111 35.8787333,8.63481111 C34.1512889,8.63481111 32.5350667,9.08903333 31.1389556,9.88236667 C31.0642889,9.90958889 30.9896222,9.93681111 30.9165111,9.97025556 L30.2678444,10.3902556 C28.1102889,11.9310333 26.6325111,14.3950333 26.3509556,17.1740333 C26.3486222,17.2020333 26.3462889,17.2308111 26.3431778,17.2588111 C26.3315111,17.3894778 26.3198444,17.5201444 26.3136222,17.6523667 C26.3074,17.7550333 26.3058444,17.8584778 26.3035111,17.9619222 C26.3027333,18.0210333 26.2988444,18.0793667 26.2988444,18.1384778 L26.2988444,18.1765889 L26.2988444,18.1765889 L26.2988444,18.2139222 C26.2988444,18.2738111 26.3027333,18.3321444 26.3035111,18.3904778 C26.3058444,18.4939222 26.3074,18.5981444 26.3136222,18.7008111 C26.3198444,18.8322556 26.3315111,18.9629222 26.3431778,19.0943667 C26.3462889,19.1223667 26.3486222,19.1503667 26.3509556,19.1791444 C26.6325111,21.9573667 28.1102889,24.4213667 30.2678444,25.9629222 L30.9165111,26.3821444 C30.9896222,26.4155889 31.0642889,26.4428111 31.1389556,26.4708111 C32.5350667,27.2633667 34.1512889,27.7183667 35.8787333,27.7183667 C35.8787333,27.7183667 38.4236222,27.6802556 39.9519556,26.7702556 C40.0826222,26.9032556 40.2257333,27.0238111 40.3781778,27.1319222 C40.8868444,27.5099222 41.5044,27.7183667 42.2145111,27.7183667 C43.9318444,27.7183667 45.3824,26.3067 45.3824,24.5504778 L45.3824,24.5504778 L45.3824,18.2139222 C45.3824,18.1781444 45.4158444,18.1765889 45.4189556,18.1765889 L45.4205111,18.1765889 L45.4197333,18.1765889 Z" id="Fill-5" fill="#FFFFFF"></path>
                    <path d="M68.3228778,18.1443889 L68.3228778,24.5182778 C68.3228778,26.2745 66.9104333,27.6869444 65.1549889,27.6869444 C63.3987667,27.6869444 61.9871,26.2745 61.9871,24.5182778 L61.9871,18.1443889 C61.9871,16.3889444 60.5365444,14.9765 58.7803222,14.9765 C57.0248778,14.9765 55.6124333,16.3889444 55.6124333,18.1443889 L55.6124333,24.5182778 C55.6124333,26.2745 54.2007667,27.6869444 52.4445444,27.6869444 C50.6891,27.6869444 49.2385444,26.2745 49.2385444,24.5182778 L49.2385444,18.1443889 C49.2385444,12.8772778 53.5132111,8.60261111 58.7803222,8.60261111 C64.0474333,8.60261111 68.3228778,12.8772778 68.3228778,18.1443889" id="Fill-7" fill="#FFFFFF"></path>
                    <path d="M104.010667,18.1827333 L104.010667,24.5566222 C104.010667,26.2739556 102.560111,27.6864 100.804667,27.6864 C99.0492222,27.6864 97.6367778,26.2739556 97.6367778,24.5566222 L97.6367778,18.1827333 C97.6367778,16.4272889 96.1862222,14.9767333 94.4307778,14.9767333 C92.6745556,14.9767333 91.2247778,16.4272889 91.2247778,18.1827333 L91.2247778,24.5566222 C91.2247778,26.2739556 89.8123333,27.6864 88.0561111,27.6864 C86.3006667,27.6864 84.8501111,26.2739556 84.8501111,24.5566222 L84.8501111,18.1827333 C84.8501111,16.4272889 83.4765556,14.9767333 81.7203333,14.9767333 C79.9648889,14.9767333 78.5143333,16.4272889 78.5143333,18.1827333 L78.5143333,24.5566222 C78.5143333,26.2739556 77.1018889,27.6864 75.3464444,27.6864 C73.591,27.6864 72.1396667,26.2739556 72.1396667,24.5566222 L72.1396667,18.1827333 C72.1396667,12.8775111 76.4532222,8.60284444 81.7203333,8.60284444 C84.1633333,8.60284444 86.3768889,9.51828889 88.0561111,11.0450667 C89.7353333,9.51828889 91.9877778,8.60284444 94.4307778,8.60284444 C99.6978889,8.60284444 104.010667,12.9156222 104.010667,18.1827333" id="Fill-9" fill="#096DD9"></path>
                    <path d="M107.829244,18.1443889 L107.829244,11.7705 C107.829244,10.0142778 109.240911,8.60261111 110.997133,8.60261111 C112.752578,8.60261111 114.165022,10.0142778 114.165022,11.7705 L114.165022,18.1443889 C114.165022,19.8998333 115.615578,21.3122778 117.371022,21.3122778 C119.126467,21.3122778 120.538911,19.8998333 120.538911,18.1443889 L120.538911,11.7705 C120.538911,10.0142778 121.951356,8.60261111 123.707578,8.60261111 C125.463022,8.60261111 126.913578,10.0142778 126.913578,11.7705 L126.913578,18.1443889 C126.913578,23.4115 122.638911,27.6869444 117.371022,27.6869444 C112.103911,27.6869444 107.829244,23.4115 107.829244,18.1443889" id="Fill-11" fill="#096DD9"></path>
                    <g id="编组" transform="translate(129.888889, 0.511078)">
                        <mask id="mask-4" fill="white">
                            <use xlink:href="#path-3"></use>
                        </mask>
                        <g id="Clip-14"></g>
                        <path d="M4.94915556,0.266622222 C2.4486,0.266622222 0.420933333,2.29428889 0.420933333,4.79484444 C0.420933333,7.29617778 2.4486,9.32384444 4.94915556,9.32384444 C7.44971111,9.32384444 9.47737778,7.29617778 9.47737778,4.79484444 C9.47737778,2.29428889 7.44971111,0.266622222 4.94915556,0.266622222 L4.94915556,0.266622222 Z M4.94915556,8.67673333 C2.8056,8.67673333 1.06804444,6.93917778 1.06804444,4.79484444 C1.06804444,2.65128889 2.8056,0.913733333 4.94915556,0.913733333 C7.09271111,0.913733333 8.83104444,2.65128889 8.83104444,4.79484444 C8.83104444,6.93917778 7.09271111,8.67673333 4.94915556,8.67673333 L4.94915556,8.67673333 Z M6.8796,6.86684444 L5.75804444,5.36573333 L5.76971111,5.36417778 C6.41993333,5.15417778 6.88971111,4.5444 6.88971111,3.82495556 C6.88971111,2.93128889 6.1656,2.20795556 5.27271111,2.20795556 L3.97848889,2.20795556 C3.80037778,2.20795556 3.65493333,2.35262222 3.65493333,2.53073333 L3.65493333,7.05895556 C3.65493333,7.23784444 3.80037778,7.38251111 3.97848889,7.38251111 C4.15737778,7.38251111 4.30204444,7.23784444 4.30204444,7.05895556 L4.30204444,5.44195556 L4.99815556,5.44195556 L6.36237778,7.25573333 C6.46971111,7.39806667 6.67193333,7.42762222 6.81504444,7.32028889 C6.95815556,7.21295556 6.98693333,7.00995556 6.8796,6.86684444 L6.8796,6.86684444 Z M4.30204444,4.79484444 L4.30204444,2.85428889 L5.27271111,2.85428889 C5.8086,2.85428889 6.24337778,3.28906667 6.24337778,3.82495556 C6.24337778,4.36084444 5.8086,4.79484444 5.27271111,4.79484444 L4.30204444,4.79484444 Z" id="Fill-13" fill="#096DD9" mask="url(#mask-4)"></path>
                    </g>
                </g>
            </g>
        </g>
    </g>
</svg>
